!!!!SEGMENT: pl-cz--iii-745--001-002_zebrowski-marcin-jozef--missa-pastoralis-christe.krn
!!!cenid: 17xx:2350
!!!COM: Żebrowski, Marcin Józef
!!!COM-rismID: pe30020322
!!!CDT: 1702-1770/06/29
!!!CNT: Polish
!!!OPR: Missa Pastoralis
!!!OTL: Christe
!!!OMV: 002
!!!PDT:
!!!AGN:
!!!SMS-siglum: PL-CZ
!!!SMS-shelfmark: III-745
!!!SMS-shelfwork: 001-002 M
!!!SMS-variant:
!!!SMS-altvar:
!!!NIFC-rismSourceID: 300033497
!!!NIFC-islandoraID: pl-cz:25279
!!!URL-pdf-islandora: https://repozytorium.nifc.pl/islandora/object/pl-cz%3A25279/datastream/PDF/view
!!!URL-scan: https://polish.musicsources.pl/pl/lokalizacje/galeria/rekopisy/1475 @EN{Scan on Polish Music Sources Website} @PL{Skany w portalu Dziedzictwo Muzyki Polskiej w otwartym dostępie}
!!!ONB-nifc: UWAGA: części Mszy: 1. Kyrie, 2. Christe, 3. Et in terra, 4. Quoniam, 5. Patrem, 6. Et incarnatus, 7. Et resurrexit, 8. Sanctus, 9. Benedictus, 10. Osanna, 11. Agnus Dei
!!!AIN: 1 bass 3 empty 1 organ 2 violn
!!!key:
**kern	**fba	**kern	**dynam	**kern	**dynam	**kern	**text	**kern	**text	**kern	**kern
*part7	*part7	*part6	*part6	*part5	*part5	*part4	*part4	*part3	*part3	*part2	*part1
*staff7	*	*staff6	*	*staff5	*	*staff4	*staff4	*staff3	*staff3	*staff2	*staff1
*Iorgan	*	*Ivioln	*	*Ivioln	*	*Ibass	*	*Iempty	*	*Iempty	*Iempty
*I"Organo	*	*I"Violino Secundo	*	*I"Violino Primo.	*	*I"Basso	*	*I"Soprano o Canto.	*	*I"Clarino Secundo in D	*I"Clarino Primo in D
*I'org	*	*I'vl II	*	*I'vl I	*	*I'B.	*	*I'S	*	*I'clno in D	*I'clno in D
*ICklav	*	*ICstr	*	*ICstr	*	*ICvox	*	*ICvox	*	*ICbras	*ICbras
*clefF4	*	*clefG2	*	*clefG2	*	*clefF4	*	*clefC1	*	*clefG2	*clefG2
*	*	*	*	*	*	*	*	*	*	*ITrd-1c-2	*ITrd-1c-2
*k[f#c#]	*	*k[f#c#]	*	*k[f#c#]	*	*k[f#c#]	*	*k[f#c#]	*	*k[f#c#]	*k[f#c#]
*D:	*	*D:	*	*D:	*	*D:	*	*D:	*	*D:	*D:
*M2/4	*	*M2/4	*below	*M2/4	*below	*M2/4	*	*M2/4	*	*M2/4	*M2/4
=1	=1	=1	=1	=1	=1	=1	=1	=1	=1	=1	=1
*	*	*^	*	*	*	*	*	*	*	*	*
*2\right	*	*	*2\right	*	*	*	*	*	*	*	*	*
!	!	!	!	!	!	!	!LO:TX:a:t=8	!	!LO:TX:b:t=8	!	!LO:TX:a:t=8	!LO:TX:a:t=8
[2D\	.	[2a/	[2f#\	.	4dd|\	.	0r	.	0r	.	0r	0r
.	.	.	.	.	(16ee\LL	.	.	.	.	.	.	.
.	.	.	.	.	16dd\	.	.	.	.	.	.	.
.	.	.	.	.	16ee\)	.	.	.	.	.	.	.
.	.	.	.	.	16ff#|\JJ	.	.	.	.	.	.	.
=2	=2	=2	=2	=2	=2	=2	=2	=2	=2	=2	=2	=2
!	!	!	!	!	!LO:TX:t=P:problem=mixed beam	!	!	!	!	!	!	!
2D\]	.	2a/]	2f#\]	.	8d/L	.	.	.	.	.	.	.
.	.	.	.	.	8dd\	.	.	.	.	.	.	.
.	.	.	.	.	8ff#\	.	.	.	.	.	.	.
.	.	.	.	.	8aa\J	.	.	.	.	.	.	.
=3	=3	=3	=3	=3	=3	=3	=3	=3	=3	=3	=3	=3
[2D\	.	[2a/	[2f#\	.	4dd|\	.	.	.	.	.	.	.
.	.	.	.	.	(16ee\LL	.	.	.	.	.	.	.
.	.	.	.	.	16dd\	.	.	.	.	.	.	.
.	.	.	.	.	16ee\)	.	.	.	.	.	.	.
.	.	.	.	.	16ff#|\JJ	.	.	.	.	.	.	.
=4	=4	=4	=4	=4	=4	=4	=4	=4	=4	=4	=4	=4
8D\L]	.	2a/]	2f#\]	.	8.ddT\L	.	.	.	.	.	.	.
8F#|\	.	.	.	.	.	.	.	.	.	.	.	.
.	.	.	.	.	(32cc#\LL	.	.	.	.	.	.	.
.	.	.	.	.	32dd\JJJ)	.	.	.	.	.	.	.
8A|\	.	.	.	.	4a|/	.	.	.	.	.	.	.
8d|\J	.	.	.	.	.	.	.	.	.	.	.	.
=5	=5	=5	=5	=5	=5	=5	=5	=5	=5	=5	=5	=5
[2D\	.	[2a/	[2f#\	.	(16dd\LL	.	0r	.	0r	.	0r	0r
.	.	.	.	.	16ee\	.	.	.	.	.	.	.
.	.	.	.	.	16ff#\	.	.	.	.	.	.	.
.	.	.	.	.	16gg#X\JJ)	.	.	.	.	.	.	.
.	.	.	.	.	(16aa\LL	.	.	.	.	.	.	.
.	.	.	.	.	16gg#X\	.	.	.	.	.	.	.
.	.	.	.	.	16bb\	.	.	.	.	.	.	.
.	.	.	.	.	16aa\JJ)	.	.	.	.	.	.	.
=6	=6	=6	=6	=6	=6	=6	=6	=6	=6	=6	=6	=6
2D\]	.	2a/]	2f#\]	.	(16aa\LL	.	.	.	.	.	.	.
.	.	.	.	.	16gg#X\	.	.	.	.	.	.	.
.	.	.	.	.	16bb\	.	.	.	.	.	.	.
.	.	.	.	.	16aa\JJ)	.	.	.	.	.	.	.
.	.	.	.	.	(16ggn\LL	.	.	.	.	.	.	.
.	.	.	.	.	16ff#\	.	.	.	.	.	.	.
.	.	.	.	.	16ee\	.	.	.	.	.	.	.
.	.	.	.	.	16dd\JJ)	.	.	.	.	.	.	.
*	*	*v	*v	*	*	*	*	*	*	*	*	*
=7	=7	=7	=7	=7	=7	=7	=7	=7	=7	=7	=7
4A\	.	8e/L	.	8cc#\L	.	.	.	.	.	.	.
.	.	8f#/J	.	8dd\J	.	.	.	.	.	.	.
4AA/	7	16c#|/LL	.	(16ee\LL	.	.	.	.	.	.	.
.	.	(16e/	.	16gg\	.	.	.	.	.	.	.
.	.	16d/	.	16ff#\	.	.	.	.	.	.	.
.	.	16e/JJ)	.	16cc#\JJ)	.	.	.	.	.	.	.
=8	=8	=8	=8	=8	=8	=8	=8	=8	=8	=8	=8
4D\	.	4f#/	.	8.ddT\L	.	.	.	.	.	.	.
.	.	.	.	(32cc#\LL	.	.	.	.	.	.	.
.	.	.	.	32dd\JJJ	.	.	.	.	.	.	.
16d\LL	.	4d/ 4a/ 4ff#/	.	4d/) 4a/ 4ff#/	.	.	.	.	.	.	.
16A\	.	.	.	.	.	.	.	.	.	.	.
16F#\	.	.	.	.	.	.	.	.	.	.	.
!LO:TX:a:t=Tutti	!	!	!	!	!	!	!	!	!	!	!
16A\JJ	.	.	.	.	.	.	.	.	.	.	.
=9	=9	=9	=9	=9	=9	=9	=9	=9	=9	=9	=9
*	*	*^	*	*	*	*	*	*	*	*	*
*	*	*	*	*	*	*	*2\right	*	*	*	*	*
[2D/	.	[2a/	[2f#\	.	4dd|\	.	2d\	Chri-	4dd\	Chri-	4f#/	4dd\
.	.	.	.	.	(16ee\LL	.	.	.	(16ee\LL	.	16a/LL	16ee\LL
.	.	.	.	.	16dd\	.	.	.	16dd\	.	16f#/	16dd\
.	.	.	.	.	16ee\)	.	.	.	16ee\	.	16a/	16ee\
.	.	.	.	.	16ff#|\JJ	.	.	.	16ff#\JJ)	.	16dd/JJ	16ff#\JJ
=10	=10	=10	=10	=10	=10	=10	=10	=10	=10	=10	=10	=10
*	*	*	*	*	*	*	*	*	*2\right	*	*	*
2D/]	.	2a/]	2f#\]	.	8d/L	.	2D\	-ste	2dd\	-ste	8f#/L	8dd\L
!	!	!	!	!	!LO:TX:t=P:problem=mixed beam	!	!	!	!	!	!	!
.	.	.	.	.	8dd\	.	.	.	.	.	8d/	8dd\
.	.	.	.	.	8ff#\	.	.	.	.	.	8f#/	8ff#\
.	.	.	.	.	8aa\J	.	.	.	.	.	8a/J	8aa\J
!	!	!	!	!	!LO:LB:g=original	!	!	!	!	!	!	!
=11	=11	=11	=11	=11	=11	=11	=11	=11	=11	=11	=11	=11
[2D\	.	[2a/	[2f#\	.	4dd|\	.	4.d\	e-	4dd\	e-	4f#/	4dd\
.	.	.	.	.	(16ee\LL	.	.	.	(16ee\LL	.	16a/LL	16ee\LL
.	.	.	.	.	16dd\	.	.	.	16dd\	.	16f#/	16dd\
.	.	.	.	.	16ee\)	.	8A\	-lei-	16ee\	.	16a/	16ee\
.	.	.	.	.	16ff#|\JJ	.	.	.	16ff#\JJ)	.	16dd/JJ	16ff#\JJ
!	!	!	!LO:LB:g=original	!	!	!	!	!	!	!	!	!
=12	=12	=12	=12	=12	=12	=12	=12	=12	=12	=12	=12	=12
8D\L]	.	2a/]	2f#\]	.	8.ddT\L	.	2D/	-son	4dd\	lei-	2f#/	4dd\
8F#|\	.	.	.	.	.	.	.	.	.	.	.	.
.	.	.	.	.	(32cc#\LL	.	.	.	.	.	.	.
.	.	.	.	.	32dd\JJJ)	.	.	.	.	.	.	.
8A|\	.	.	.	.	4a|/	.	.	.	4a\	-son	.	4a/
8d|\J	.	.	.	.	.	.	.	.	.	.	.	.
=13	=13	=13	=13	=13	=13	=13	=13	=13	=13	=13	=13	=13
[2D/	.	[2a/	[2f#\	.	(16dd\LL	.	2d\	Chri-	2dd\	Chri-	4f#/	4a/
.	.	.	.	.	16ee\	.	.	.	.	.	.	.
.	.	.	.	.	16ff#\	.	.	.	.	.	.	.
.	.	.	.	.	16gg#X\JJ)	.	.	.	.	.	.	.
.	.	.	.	.	(16aa\LL	.	.	.	.	.	4r	4r
.	.	.	.	.	16gg#X\	.	.	.	.	.	.	.
.	.	.	.	.	16bb\	.	.	.	.	.	.	.
.	.	.	.	.	16aa\JJ)	.	.	.	.	.	.	.
!LO:LB:g=original	!	!	!	!	!	!	!	!	!	!	!	!
=14	=14	=14	=14	=14	=14	=14	=14	=14	=14	=14	=14	=14
2D/]	.	2a/]	2f#\]	.	(16aa\LL	.	2D/	-ste	2dd\	-ste	4f#/	4a/
.	.	.	.	.	16gg#X\	.	.	.	.	.	.	.
.	.	.	.	.	16bb\	.	.	.	.	.	.	.
.	.	.	.	.	16aa\JJ)	.	.	.	.	.	.	.
.	.	.	.	.	(16ggn\LL	.	.	.	.	.	4r	4r
.	.	.	.	.	16ff#\	.	.	.	.	.	.	.
.	.	.	.	.	16ee\)	.	.	.	.	.	.	.
.	.	.	.	.	16dd\JJ	.	.	.	.	.	.	.
*	*	*v	*v	*	*	*	*	*	*	*	*	*
!	!	!	!	!	!	!	!	!LO:LB:g=original	!	!	!
=15	=15	=15	=15	=15	=15	=15	=15	=15	=15	=15	=15
4A\	.	8e/L	.	8cc#\L	.	4.A\	e-	(8cc#\L	e-	8a/L	8ee\L
.	.	8f#/J	.	8dd\J	.	.	.	8dd\J)	.	8dd/J	8ff#\J
4AA/	7	16c#/LL	.	(16ee\LL	.	.	.	8ee\	-lei-	8a/L	8ee\L
.	.	(16e/	.	16gg\	.	.	.	.	.	.	.
.	.	16d/	.	16ff#\	.	8AA/	-lei-	(16ff#\LL	.	16dd/L	16ff#\L
.	.	16e/JJ)	.	16cc#\JJ)	.	.	.	16cc#\JJ)	.	16a/JJ	16ee\JJ
!	!	!	!	!	!	!	!	!	!	!LO:LB:g=original	!LO:LB:g=original
=16	=16	=16	=16	=16	=16	=16	=16	=16	=16	=16	=16
!	!	!	!	!	!	!	!	!	!	!	!LO:TX:t=P:problem=mixed beam
.	.	.	.	.	.	.	.	8qqcc#/	.	.	.
4D\	.	4f#/	.	8.ddT\L	.	4D/	-son	4dd\	-son	8f#/L	8dd\L
.	.	.	.	.	.	.	.	.	.	16f#/L	16a/L
.	.	.	.	(32cc#\LL	.	.	.	.	.	16f#/JJ	16a/JJ
.	.	.	.	32dd\JJJ)	.	.	.	.	.	.	.
16d\LL	.	4d/ 4a/ 4ff#/	.	4d/ 4a/ 4ff#/	.	4r	.	4r	.	8f#/	8a/
16A\	.	.	.	.	.	.	.	.	.	.	.
16F#\	.	.	.	.	.	.	.	.	.	8r	8r
16A\JJ	.	.	.	.	.	.	.	.	.	.	.
=17	=17	=17	=17	=17	=17	=17	=17	=17	=17	=17	=17
*	*	*^	*	*	*	*	*	*	*	*	*
2D/	.	2a/	2f#\	.	(16ff#\LL	.	2d\	e-	2ff#\	e-	8r	4a/
.	.	.	.	.	16aa\	.	.	.	.	.	.	.
.	.	.	.	.	16gg#X\)	.	.	.	.	.	16a/LL	.
.	.	.	.	.	16aa|\JJ	.	.	.	.	.	16a/JJ	.
.	.	.	.	.	(16bb\LL	.	.	.	.	.	4a/	8r
.	.	.	.	.	16aa\	.	.	.	.	.	.	.
.	.	.	.	.	16gg#X\)	.	.	.	.	.	.	16a/LL
.	.	.	.	.	16aa|\JJ	.	.	.	.	.	.	16a/JJ
=18	=18	=18	=18	=18	=18	=18	=18	=18	=18	=18	=18	=18
2C#/	6	2a/	2e\	.	(16ee\LL	.	2c#\	.	2ee\	-le-	8r	4a/
.	.	.	.	.	16aa\	.	.	.	.	.	.	.
.	.	.	.	.	16gg#X\)	.	.	.	.	.	16a/LL	.
.	.	.	.	.	16aa|\JJ	.	.	.	.	.	16a/JJ	.
.	.	.	.	.	(16bb\LL	.	.	.	.	.	4a/	8r
.	.	.	.	.	16aa\	.	.	.	.	.	.	.
.	.	.	.	.	16gg#X\)	.	.	.	.	.	.	16a/LL
.	.	.	.	.	16aa|\JJ	.	.	.	.	.	.	16a/JJ
!	!	!	!	!	!LO:LB:g=original	!	!LO:LB:g=original	!	!	!	!	!
=19	=19	=19	=19	=19	=19	=19	=19	=19	=19	=19	=19	=19
2BB/	7	2a/	2d/	.	(16dd\LL	.	2BT<\	-lei-	2ddT\	-i-	8r	4a/
.	.	.	.	.	16aa\)	.	.	.	.	.	.	.
.	.	.	.	.	16gg#X|\	.	.	.	.	.	16a/LL	.
.	.	.	.	.	16aa|\JJ	.	.	.	.	.	16a/JJ	.
.	.	.	.	.	(16bb\LL	.	.	.	.	.	4a/	8r
.	.	.	.	.	16aa\)	.	.	.	.	.	.	.
.	.	.	.	.	16gg#X|\	.	.	.	.	.	.	16a/LL
.	.	.	.	.	16aa|\JJ	.	.	.	.	.	.	16a/JJ
=20	=20	=20	=20	=20	=20	=20	=20	=20	=20	=20	=20	=20
2AA/	8	2a/	2e/	.	(16cc#\LL	.	2A\	-son	2cc#\	-son	4a/	4a/
.	.	.	.	.	16aa\)	.	.	.	.	.	.	.
.	.	.	.	.	16gg#X|\	.	.	.	.	.	.	.
.	.	.	.	.	16aa|\JJ	.	.	.	.	.	.	.
.	.	.	.	.	(16bb\LL	.	.	.	.	.	4a/	4a/
.	.	.	.	.	16aa\)	.	.	.	.	.	.	.
.	.	.	.	.	16gg#X|\	.	.	.	.	.	.	.
.	.	.	.	.	16aa|\JJ	.	.	.	.	.	.	.
*	*	*v	*v	*	*	*	*	*	*	*	*	*
=21	=21	=21	=21	=21	=21	=21	=21	=21	=21	=21	=21
!	!	!LO:TX:a:t=1	!	!	!	!	!	!LO:TX:a:t=8	!	!LO:TX:a:t=8	!LO:TX:a:t=8
4D/	.	2r	.	8d/ 8a/ 8ff#/	.	0r	.	0r	.	0r	0r
.	.	.	.	16aa\LL	.	.	.	.	.	.	.
.	.	.	.	16ggn\JJ	.	.	.	.	.	.	.
4r	.	.	.	16ff#\LL	.	.	.	.	.	.	.
.	.	.	.	16ee\	.	.	.	.	.	.	.
.	.	.	.	16dd\	.	.	.	.	.	.	.
.	.	.	.	16cc#\JJ	.	.	.	.	.	.	.
=22	=22	=22	=22	=22	=22	=22	=22	=22	=22	=22	=22
4d\	.	8d/ 8a/ 8ff#/	.	8dd\L	.	.	.	.	.	.	.
.	.	16aa\LL	.	16ff#\L	.	.	.	.	.	.	.
.	.	16ggn\JJ	.	16ee\JJ	.	.	.	.	.	.	.
4r	.	16ff#\LL	.	16dd\LL	.	.	.	.	.	.	.
.	.	16ee\	.	16cc#\	.	.	.	.	.	.	.
.	.	16dd\	.	16b\	.	.	.	.	.	.	.
.	.	16cc#\JJ	.	16a\JJ	.	.	.	.	.	.	.
=23	=23	=23	=23	=23	=23	=23	=23	=23	=23	=23	=23
2D\	6	8dd\L	.	8b\L	.	.	.	.	.	.	.
.	.	16ff#\L	.	16dd\L	.	.	.	.	.	.	.
.	.	16ee\JJ	.	16cc#\JJ	.	.	.	.	.	.	.
.	.	16dd\LL	.	16b/LL	.	.	.	.	.	.	.
.	.	16cc#\	.	16a/	.	.	.	.	.	.	.
.	.	16b\	.	16g#X/	.	.	.	.	.	.	.
.	.	16a\JJ	.	16f#/JJ	.	.	.	.	.	.	.
!	!	!LO:LB:g=original	!	!	!	!	!	!	!	!	!
=24	=24	=24	=24	=24	=24	=24	=24	=24	=24	=24	=24
4E\	#3	4g#X/	.	4e/ 4b/ 4ee/	.	.	.	.	.	.	.
4e\	.	(4ee\	.	[4ee\	.	.	.	.	.	.	.
=25	=25	=25	=25	=25	=25	=25	=25	=25	=25	=25	=25
8d|\L	.	8dd\L)	.	8ee\L]	.	0r	.	0r	.	0r	0r
8c#|\	.	8cc#|\	.	8cc#|\	.	.	.	.	.	.	.
8B|\	.	8b|\	.	8b|\	.	.	.	.	.	.	.
8A|\J	.	8a|\J	.	8a|\J	.	.	.	.	.	.	.
=26	=26	=26	=26	=26	=26	=26	=26	=26	=26	=26	=26
8G#X\L	.	8g#X/L	.	8g#X|/L	.	.	.	.	.	.	.
8B\J	.	8b/J	.	8b|/J	.	.	.	.	.	.	.
4e\	.	(4ee\	.	(4ee\	.	.	.	.	.	.	.
=27	=27	=27	=27	=27	=27	=27	=27	=27	=27	=27	=27
8d|\L	.	8dd\L)	.	8dd\L)	.	.	.	.	.	.	.
8c#|\	.	8cc#|\	.	8cc#|\	.	.	.	.	.	.	.
8B|\	.	8b|\	.	8b|\	.	.	.	.	.	.	.
8A|\J	.	8a|\J	.	8a|\J	.	.	.	.	.	.	.
=28	=28	=28	=28	=28	=28	=28	=28	=28	=28	=28	=28
!	!	!LO:TX:t=P:problem=mixed beam	!	!LO:TX:t=P:problem=mixed beam	!	!	!	!	!	!	!
8e\L	.	8ee\L	.	8ee\L	.	.	.	.	.	.	.
8E\J	.	8e/J	.	8e/J	.	.	.	.	.	.	.
4r	.	4r	.	4r	.	.	.	.	.	.	.
!	!	!	!	!LO:LB:g=original	!	!	!	!	!	!	!
=29	=29	=29	=29	=29	=29	=29	=29	=29	=29	=29	=29
*	*	*^	*	*	*	*	*	*	*	*	*
[2AA/	.	[2ee/	[2cc#\	.	4aa\	.	2A\	Chri-	2cc#\	Chri-	4a/	4ee\
.	.	.	.	.	(16bb\LL	.	.	.	.	.	8r	8r
.	.	.	.	.	16aa\	.	.	.	.	.	.	.
.	.	.	.	.	16bb\)	.	.	.	.	.	16a/LL	16ee\LL
.	.	.	.	.	16ccc#\JJ	.	.	.	.	.	16a/JJ	16ee\JJ
=30	=30	=30	=30	=30	=30	=30	=30	=30	=30	=30	=30	=30
2AA/]	.	2ee/_	2cc#\_	.	8a\L	.	2A\	-ste	2cc#\	-ste	4a/	4ee\
.	.	.	.	.	8aa\	.	.	.	.	.	.	.
.	.	.	.	.	8ccc#\	.	.	.	.	.	8r	8r
.	.	.	.	.	8eee\J	.	.	.	.	.	16a/LL	16ee\LL
.	.	.	.	.	.	.	.	.	.	.	16a/JJ	16ee\JJ
!	!	!	!	!	!	!	!	!	!LO:LB:g=original	!	!	!
=31	=31	=31	=31	=31	=31	=31	=31	=31	=31	=31	=31	=31
[2AA/	.	2ee/_	2cc#\_	.	4aa\	.	4A\	e-	4cc#\	e-	4a/	4ee\
.	.	.	.	.	(16bb\LL	.	4A\	-lei-	4cc#\	-lei-	4a/	4ee\
.	.	.	.	.	16aa\	.	.	.	.	.	.	.
.	.	.	.	.	16bb\	.	.	.	.	.	.	.
.	.	.	.	.	16ccc#\JJ)	.	.	.	.	.	.	.
=32	=32	=32	=32	=32	=32	=32	=32	=32	=32	=32	=32	=32
*	*	*	*	*	*	*	*	*	*	*	*	*2\right
8AA/L]	.	2ee/]	2cc#\]	.	8.aaT\L	.	2A\	-son	2cc#\	-son	2a/	2ee\
8C#|/	.	.	.	.	.	.	.	.	.	.	.	.
.	.	.	.	.	(32gg#X\LL	.	.	.	.	.	.	.
.	.	.	.	.	32aa\JJJ)	.	.	.	.	.	.	.
8E|/	.	.	.	.	4ee|\	.	.	.	.	.	.	.
8A|/J	.	.	.	.	.	.	.	.	.	.	.	.
=33	=33	=33	=33	=33	=33	=33	=33	=33	=33	=33	=33	=33
[2AA/	.	[2e/	[2c#/	.	(16a\LL	.	4.c#\	Ky-	4.ee\	Ky-	4a/	4ee\
.	.	.	.	.	16b\	.	.	.	.	.	.	.
.	.	.	.	.	16cc#\	.	.	.	.	.	.	.
.	.	.	.	.	16dd#X\JJ)	.	.	.	.	.	.	.
.	.	.	.	.	(16ee\LL	.	.	.	.	.	4r	4r
.	.	.	.	.	16dd#X\	.	.	.	.	.	.	.
.	.	.	.	.	16ff#\	.	8c#\	-ri-	8ee\	-ri-	.	.
.	.	.	.	.	16ee\JJ)	.	.	.	.	.	.	.
!	!	!	!	!	!	!	!	!	!	!	!LO:LB:g=original	!LO:LB:g=original
=34	=34	=34	=34	=34	=34	=34	=34	=34	=34	=34	=34	=34
2AA/]	.	2e/]	2c#/]	.	(16ee\LL	.	2A\	-e	2cc#\	-e	4a/	4ee\
.	.	.	.	.	16dd#X\	.	.	.	.	.	.	.
.	.	.	.	.	16ff#\	.	.	.	.	.	.	.
.	.	.	.	.	16ee\JJ)	.	.	.	.	.	.	.
.	.	.	.	.	(16ddn\LL	.	.	.	.	.	4r	4r
.	.	.	.	.	16cc#\	.	.	.	.	.	.	.
.	.	.	.	.	16b\	.	.	.	.	.	.	.
.	.	.	.	.	16a\JJ)	.	.	.	.	.	.	.
*	*	*v	*v	*	*	*	*	*	*	*	*	*
!LO:LB:g=original	!	!	!	!	!	!	!	!	!	!	!
=35	=35	=35	=35	=35	=35	=35	=35	=35	=35	=35	=35
4E\	.	8B/L	.	8g#X/L	.	(8G#X\L	e-	(8b\L	e-	4ee\	8gg#X\L
.	.	8c#/J	.	8a/J	.	8A\J)	.	8cc#\J)	.	.	8aa\J
.	.	.	.	.	.	.	.	8qdd/	.	.	.
4EE/	7	8G#X/L	.	(16b\LL	.	8B\L	-lei-	8dd\	-le-	8.ee\L	8bb\L
.	.	.	.	16dd\	.	.	.	.	.	.	.
.	.	(16e/L	.	16cc#\)	.	16A\L	.	(16cc#\LL	-i-	.	16aa\L
.	.	16d/JJ)	.	16g#X|\JJ	.	16G#X\JJ	.	16b\JJ)	.	16ee\Jk	16gg#X\JJ
!	!	!LO:LB:g=original	!	!	!	!	!	!	!	!	!
=36	=36	=36	=36	=36	=36	=36	=36	=36	=36	=36	=36
*	*	*^	*	*	*	*	*	*	*	*	*
[2AA/	.	[2e/	[2c#/	.	(4a\	.	2A\	-son	2a\	-son	4ee\	4aa\
!	!	!	!	!	!LO:TX:t=P:problem=mixed beam	!	!	!	!	!	!	!
.	.	.	.	.	8cc#\L)	.	.	.	.	.	4r	4r
.	.	.	.	.	8e|/J	.	.	.	.	.	.	.
=37	=37	=37	=37	=37	=37	=37	=37	=37	=37	=37	=37	=37
2AA/]	.	2e/_	2c#/_	.	(4a/	.	2A\	e-	2a\	e-	4a/	4ee\
!	!	!	!	!	!LO:TX:t=P:problem=mixed beam	!	!	!	!	!	!	!
.	.	.	.	.	8ee\L)	.	.	.	.	.	8r	8r
.	.	.	.	.	8e|/J	.	.	.	.	.	16a/LL	16ee\LL
.	.	.	.	.	.	.	.	.	.	.	16a/JJ	16ee\JJ
!	!	!	!	!	!	!	!LO:LB:g=original	!	!	!	!	!
=38	=38	=38	=38	=38	=38	=38	=38	=38	=38	=38	=38	=38
[2AA/	.	2e/]	2c#/]	.	(4a/	.	2A\	-lei-	2aT\	-lei-	4a/	4ee\
!	!	!	!	!	!LO:TX:t=P:problem=mixed beam	!	!	!	!	!	!	!
.	.	.	.	.	8aa\L)	.	.	.	.	.	8.a/L	8.ee\L
.	.	.	.	.	8e|/J	.	.	.	.	.	.	.
.	.	.	.	.	.	.	.	.	.	.	16a/Jk	16ee\Jk
*	*	*v	*v	*	*	*	*	*	*	*	*	*
=39	=39	=39	=39	=39	=39	=39	=39	=39	=39	=39	=39
!LO:TX:t=P:problem=mixed beam	!	!	!	!	!	!	!	!	!	!	!
8AA/L]	.	4c#/ 4e/ 4a/	.	4A/ 4e/ 4a/	.	4A\	-son	4a\	-son	4a/	4ee\
8E\	.	.	.	.	.	.	.	.	.	.	.
8A\	.	8r	.	8r	.	4r	.	4r	.	4r	4r
8D\J	.	8f#/	p	8f#/	p	.	.	.	.	.	.
!	!	!	!	!LO:LB:g=original	!	!	!	!LO:LB:g=original	!	!	!
=40	=40	=40	=40	=40	=40	=40	=40	=40	=40	=40	=40
!	!	!	!	!	!	!LO:TX:a:rj:t=Solo	!	!LO:TX:a:t=4	!	!LO:TX:a:t=8	!LO:TX:a:t=8
8D#X\L	6	8d#X/L	.	8d#X/L	.	4.B\	Chri-	0r	.	0r	0r
8F#\	.	8f#/	.	8f#/	.	.	.	.	.	.	.
8BB\	#3	8B/	.	8B/	.	.	.	.	.	.	.
8G\J	.	8a/J	.	8a/J	.	16c#\LL	.	.	.	.	.
.	.	.	.	.	.	16d#X\JJ	.	.	.	.	.
=41	=41	=41	=41	=41	=41	=41	=41	=41	=41	=41	=41
.	.	.	.	.	.	8qqd/	.	.	.	.	.
8G#X\L	6	8g#X/L	.	8g#X/L	.	2e\	-ste	.	.	.	.
8B\	.	8b/	.	8b/	.	.	.	.	.	.	.
8G#X\	.	8g#X/	.	8g#X/	.	.	.	.	.	.	.
8E\J	.	8e/J	.	8e/J	.	.	.	.	.	.	.
=42	=42	=42	=42	=42	=42	=42	=42	=42	=42	=42	=42
8D#X\L	6	8d#X/L	.	8d#X/L	.	16f#\LL	e-	.	.	.	.
.	.	.	.	.	.	16e\	.	.	.	.	.
8F#\	.	8f#/	.	8f#/	.	16d#X\	.	.	.	.	.
.	.	.	.	.	.	16c#\JJ	.	.	.	.	.
8BB\	7	8B/	.	8B/	.	8B\L	.	.	.	.	.
8A\J	#3	8a/J	.	8a/J	.	8A\J	.	.	.	.	.
=43	=43	=43	=43	=43	=43	=43	=43	=43	=43	=43	=43
8G#X\L	6	8g#X/L	.	8g#X/L	.	8G#X\	-lei-	.	.	.	.
8E\J	.	8e/J	.	8e/J	.	8E\	-son	.	.	.	.
8r	.	8r	.	8r	.	4r	.	.	.	.	.
8E\	.	8e/	.	8e/	.	.	.	.	.	.	.
=44	=44	=44	=44	=44	=44	=44	=44	=44	=44	=44	=44
!	!	!	!	!	!	!	!	!LO:TX:a:t=Solo	!	!	!
8C#\L	6	8c#/L	.	8c#/L	.	0r	.	4.a\	Ky-	0r	0r
8E\	.	8e/	.	8e/	.	.	.	.	.	.	.
8AA\	.	8A/	.	8A/	.	.	.	.	.	.	.
8Gn\J	.	8gn/J	.	8gn/J	.	.	.	(16b\LL	-ri-	.	.
.	.	.	.	.	.	.	.	16cc#\JJ)	.	.	.
=45	=45	=45	=45	=45	=45	=45	=45	=45	=45	=45	=45
.	.	.	.	.	.	.	.	8qqcc#/	.	.	.
8F#\L	6	8f#/L	.	8f#/L	.	.	.	4.dd\	-e	.	.
8A\	.	8a/	.	8a/	.	.	.	.	.	.	.
8F#\	.	8f#/	.	8f#/	.	.	.	.	.	.	.
8D\J	.	8d/J	.	8d/J	.	.	.	8ff#\	e-	.	.
=46	=46	=46	=46	=46	=46	=46	=46	=46	=46	=46	=46
8C#\L	6	8c#/L	.	8c#/L	.	.	.	(16ee\LL	-le-	.	.
.	.	.	.	.	.	.	.	16dd\)	.	.	.
8E\	.	8e/	.	8e/	.	.	.	16cc#|\	.	.	.
.	.	.	.	.	.	.	.	16b|\JJ	.	.	.
8AA\	6	8A/	.	8A/	.	.	.	8a\L	.	.	.
8G\J	.	8g/J	.	8g/J	.	.	.	8g\J	.	.	.
=47	=47	=47	=47	=47	=47	=47	=47	=47	=47	=47	=47
8F#\L	6	8f#/L	.	8f#/L	.	.	.	8f#/	-i-	.	.
8D\J	.	8d/J	.	8d/J	.	.	.	8d/	-son	.	.
4r	.	4r	.	4r	.	.	.	4r	.	.	.
=48	=48	=48	=48	=48	=48	=48	=48	=48	=48	=48	=48
!	!	!LO:TX:t=P:problem=mixed beam	!	!	!	!	!	!	!	!	!
.	.	.	.	8qqdd/	f	.	.	.	.	.	.
8F#\L	6 -5	16d/LL	f	(32ccn\LLL	.	2F#\	Chri-	2a\	Chri-	4d/	8r
.	.	.	.	32b\JJ	.	.	.	.	.	.	.
.	.	16dd\	.	8.cc\J)	.	.	.	.	.	.	.
8A\	.	16dd\	.	.	.	.	.	.	.	.	16d/LL
.	.	16dd\JJ	.	.	.	.	.	.	.	.	16d/JJ
.	.	.	.	8qqgg/	.	.	.	.	.	.	.
!	!	!LO:LB:g=original	!	!	!	!	!	!	!	!	!
8D\	.	16dd\LL	.	(32ff#\LLL	.	.	.	.	.	4r	16d/LL
.	.	.	.	32ee\JJ	.	.	.	.	.	.	.
.	.	16dd\	.	8.ff#\J)	.	.	.	.	.	.	16d/
8cn\J	.	16dd\	.	.	.	.	.	.	.	.	16d/
.	.	16dd\JJ	.	.	.	.	.	.	.	.	16d/JJ
=49	=49	=49	=49	=49	=49	=49	=49	=49	=49	=49	=49
!	!	!LO:TX:t=P:problem=mixed beam	!	!	!	!	!	!	!	!	!
.	.	.	.	8qqaa/	.	.	.	.	.	.	.
8B\L	6	16dd\LL	.	(32gg\LLL	.	2G\	-ste	2b\	-ste	8r	4d/
.	.	.	.	32ff#\JJ	.	.	.	.	.	.	.
.	.	16d/	.	8.gg\J)	.	.	.	.	.	.	.
8d\	.	16d/	.	.	.	.	.	.	.	16d/LL	.
.	.	16d/JJ	.	.	.	.	.	.	.	16d/JJ	.
.	.	.	.	8qqee/	.	.	.	.	.	.	.
8B\	.	16d/LL	.	(32dd\LLL	.	.	.	.	.	16d/LL	4r
.	.	.	.	32cc#\JJ	.	.	.	.	.	.	.
.	.	16d/	.	8.dd\J)	.	.	.	.	.	16d/	.
8G\J	.	16d/	.	.	.	.	.	.	.	16d/	.
.	.	16d/JJ	.	.	.	.	.	.	.	16d/JJ	.
=50	=50	=50	=50	=50	=50	=50	=50	=50	=50	=50	=50
!	!	!LO:TX:t=P:problem=mixed beam	!	!	!	!	!	!	!	!	!
.	.	.	.	8qqdd/	.	.	.	.	.	.	.
8F#\L	6 -5	16d/LL	.	(32ccn\LLL	.	2F#\	e-	2a\	e-	8d/L	8r
.	.	.	.	32b\JJ	.	.	.	.	.	.	.
.	.	16dd\	.	8.cc\J)	.	.	.	.	.	.	.
8A\	.	16dd\	.	.	.	.	.	.	.	16d/L	16d/LL
.	.	16dd\JJ	.	.	.	.	.	.	.	16d/JJ	16d/JJ
.	.	.	.	8qqgg/	.	.	.	.	.	.	.
8D\	.	16dd\LL	.	(32ff#\LLL	.	.	.	.	.	16d/LL	16d/LL
.	.	.	.	32ee\JJ	.	.	.	.	.	.	.
.	.	16dd\	.	8.ff#\J)	.	.	.	.	.	16d/	16d/
8cn\J	.	16dd\	.	.	.	.	.	.	.	16d/	16d/
.	.	16dd\JJ	.	.	.	.	.	.	.	16d/JJ	16d/JJ
!LO:LB:g=original	!	!	!	!	!	!LO:LB:g=original	!	!LO:LB:g=original	!	!LO:LB:g=original	!LO:LB:g=original
=51	=51	=51	=51	=51	=51	=51	=51	=51	=51	=51	=51
!	!	!LO:TX:t=P:problem=mixed beam	!	!	!	!	!	!	!	!	!
8B\L	6	16dd\LL	.	(16gg\LL	.	4G\	-lei-	4b\	-lei-	4d/	4d/
.	.	16d/	.	16bb\)	.	.	.	.	.	.	.
8d\	.	16d/	.	(16dd\	.	.	.	.	.	.	.
.	.	16d/JJ	.	16gg\JJ)	.	.	.	.	.	.	.
!	!	!	!	!LO:LB:g=original	!	!	!	!	!	!	!
8B\	.	16d/LL	.	(16b/LL	.	4G\	-son	4b\	-son	4r	4r
.	.	16d/	.	16ee/J)	.	.	.	.	.	.	.
8G\J	.	16d/	.	8g|/J	.	.	.	.	.	.	.
.	.	16d/JJ	.	.	.	.	.	.	.	.	.
=52	=52	=52	=52	=52	=52	=52	=52	=52	=52	=52	=52
!	!	!LO:TX:t=P:problem=mixed beam	!	!	!	!	!	!	!	!	!
.	.	.	.	8qqee/	.	.	.	.	.	.	.
8G#X\L	6 5	16e/LL	.	(32dd\LLL	.	2G#X\	Chri-	2b\	Chri-	8r	[2ee\
.	.	.	.	32cc#X\JJ	.	.	.	.	.	.	.
.	.	16ee\	.	8.dd\J)	.	.	.	.	.	.	.
8B\	.	16ee\	.	.	.	.	.	.	.	8ee\	.
.	.	16ee\JJ	.	.	.	.	.	.	.	.	.
*	*	*tremolo	*	*	*	*	*	*	*	*	*
8E\	7 #3	16ee\LL	.	(32gg#X\LLL	.	.	.	.	.	4ee\	.
.	.	.	.	32ff#\JJ	.	.	.	.	.	.	.
.	.	16ee\	.	8.gg#\J)	.	.	.	.	.	.	.
8d\J	.	16ee\	.	.	.	.	.	.	.	.	.
.	.	16ee\JJ	.	.	.	.	.	.	.	.	.
=53	=53	=53	=53	=53	=53	=53	=53	=53	=53	=53	=53
!	!	!LO:TX:t=P:problem=mixed beam	!	!	!	!	!	!	!	!	!
.	.	.	.	8qqbb/	.	.	.	.	.	.	.
8c#X\L	6	16ee/LL	.	(32aa\LLL	.	2A\	-ste	2cc#X\	-ste	8r	2ee\]
.	.	.	.	32gg#X\JJ	.	.	.	.	.	.	.
.	.	16e/	.	8.aa\J)	.	.	.	.	.	.	.
8e\	.	16e/	.	.	.	.	.	.	.	8a/	.
.	.	16e/JJ	.	.	.	.	.	.	.	.	.
.	.	.	.	8qqff#/	.	.	.	.	.	.	.
8c#\	.	16e/LL	.	(32ee\LLL	.	.	.	.	.	4a/	.
.	.	.	.	32dd\JJ	.	.	.	.	.	.	.
.	.	16e/	.	8.ee\J)	.	.	.	.	.	.	.
8A\J	.	16e/	.	.	.	.	.	.	.	.	.
.	.	16e/JJ	.	.	.	.	.	.	.	.	.
=54	=54	=54	=54	=54	=54	=54	=54	=54	=54	=54	=54
!	!	!LO:TX:t=P:problem=mixed beam	!	!	!	!	!	!	!	!	!
.	.	.	.	8qqee/	.	.	.	.	.	.	.
8G#X\L	6 5	16e/LL	.	(32dd\LLL	.	2G#X\	e-	2b\	e-	8r	2eeT\
.	.	.	.	32cc#\JJ	.	.	.	.	.	.	.
.	.	16ee/	.	8.dd\J)	.	.	.	.	.	.	.
8B\	.	16ee/	.	.	.	.	.	.	.	8ee\	.
.	.	16ee/JJ	.	.	.	.	.	.	.	.	.
.	.	.	.	8qqaa/	.	.	.	.	.	.	.
8E\	7 #	16ee\LL	.	(32gg#X\LLL	.	.	.	.	.	4ee\	.
.	.	.	.	32ff#\JJ	.	.	.	.	.	.	.
.	3	16ee\	.	8.gg#\J)	.	.	.	.	.	.	.
8d\J	.	16ee\	.	.	.	.	.	.	.	.	.
.	.	16ee\JJ	.	.	.	.	.	.	.	.	.
=55	=55	=55	=55	=55	=55	=55	=55	=55	=55	=55	=55
!	!	!LO:TX:t=P:problem=mixed beam	!	!	!	!	!	!	!	!	!
8c#\L	6	16ee/LL	.	(16aa\LL	.	4A\	-lei-	4cc#\	-lei-	4a/	4ee\
.	.	16e/	.	16ccc#\)	.	.	.	.	.	.	.
8e\	.	16e/	.	16ee|\	.	.	.	.	.	.	.
.	.	16e/JJ	.	16aa|\JJ	.	.	.	.	.	.	.
8c#\	.	16e/LL	.	(16cc#\LL	.	4A\	-son	4cc#\	-son	4r	4r
.	.	16e/	.	16ee\J)	.	.	.	.	.	.	.
8A\J	.	16e/	.	8a|\J	.	.	.	.	.	.	.
.	.	16e/JJ	.	.	.	.	.	.	.	.	.
*	*	*Xtremolo	*	*	*	*	*	*	*	*	*
=56	=56	=56	=56	=56	=56	=56	=56	=56	=56	=56	=56
!	!	!	!	!	!	!	!	!	!	!LO:TX:a:t=4	!LO:TX:a:t=4
8AA/L	.	4A/ 4e/ 4a/	.	(16a\LL	.	8AA/L	e-	4.cc#\	Ky-	0r	0r
.	.	.	.	16aa\)	.	.	.	.	.	.	.
8BB/	.	.	.	16gg#X|\	.	8BB/	.	.	.	.	.
.	.	.	.	16aa|\JJ	.	.	.	.	.	.	.
8C#/	.	4r	.	(16bb\LL	.	8C#/	.	.	.	.	.
.	.	.	.	16aa\)	.	.	.	.	.	.	.
8AA/J	.	.	.	16gg#X|\	.	8AA/J	.	8cc#\	-ri-	.	.
.	.	.	.	16aa|\JJ	.	.	.	.	.	.	.
!	!	!LO:LB:g=original	!	!	!	!	!	!	!	!	!
=57	=57	=57	=57	=57	=57	=57	=57	=57	=57	=57	=57
*	*	*	*	*2\right	*	*	*	*	*	*	*
!	!	!LO:TX:t=P:problem=mixed beam	!	!	!	!	!	!	!	!	!
8E\L	#	(16e/LL	.	2gg#X\	.	8E\L	.	4b\	-e	.	.
.	.	16dd\	.	.	.	.	.	.	.	.	.
8F#\	.	16cc#\)	.	.	.	8F#\	.	.	.	.	.
.	.	16dd|\JJ	.	.	.	.	.	.	.	.	.
8G#X\	.	(16ee\LL	.	.	.	8G#X\	.	[4ee\	e-	.	.
.	.	16dd\)	.	.	.	.	.	.	.	.	.
8E\J	.	16cc#\	.	.	.	8E\J	.	.	.	.	.
.	.	16dd|\JJ	.	.	.	.	.	.	.	.	.
=58	=58	=58	=58	=58	=58	=58	=58	=58	=58	=58	=58
.	.	8qqdd/	.	.	.	.	.	.	.	.	.
8A\L	7	2cc#\	.	(16a\LL	.	8A\L	-lei-	4ee\]	.	.	.
.	n	.	.	16ggn\)	.	.	.	.	.	.	.
8Bn\	.	.	.	16ff#|\	.	8B\	.	.	.	.	.
.	.	.	.	16gg|\JJ	.	.	.	.	.	.	.
8c#\	.	.	.	(16aa\LL	.	8c#\	.	4cc#\	-le-	.	.
.	.	.	.	16gg\)	.	.	.	.	.	.	.
8A\J	.	.	.	16ff#|\	.	8A\J	.	.	.	.	.
.	.	.	.	16gg|\JJ	.	.	.	.	.	.	.
=59	=59	=59	=59	=59	=59	=59	=59	=59	=59	=59	=59
.	.	.	.	8qqgg/	.	.	.	.	.	.	.
!	!	!LO:TX:t=P:problem=mixed beam	!	!	!	!	!	!	!	!	!
8D\L	7	(16d/LL	.	2ff#\	.	8D\L	-son	4a\	-i-	.	.
.	n	16ccn\	.	.	.	.	.	.	.	.	.
8E\	.	16b\)	.	.	.	8E\	.	.	.	.	.
.	.	16cc|\JJ	.	.	.	.	.	.	.	.	.
8F#\	.	(16dd\LL	.	.	.	8F#\	.	4dd\	-son	.	.
.	.	16cc\)	.	.	.	.	.	.	.	.	.
8D\J	.	16b\	.	.	.	8D\J	.	.	.	.	.
.	.	16cc|\JJ	.	.	.	.	.	.	.	.	.
!	!	!	!	!LO:LB:g=original	!	!	!	!	!	!	!
=60	=60	=60	=60	=60	=60	=60	=60	=60	=60	=60	=60
*	*	*^	*	*	*	*	*	*	*	*	*
[2GG/	3	[2d/	2B/	.	4G/ 4d/ 4b/ 4gg/	.	2G\	Chri-	2b\	Chri-	4d/	4d/
.	.	.	.	.	(16aa\LL	.	.	.	.	.	8r	8r
.	.	.	.	.	16gg\	.	.	.	.	.	.	.
.	.	.	.	.	16aa\	.	.	.	.	.	16d/LL	16d/LL
.	.	.	.	.	16bb\JJ)	.	.	.	.	.	16d/JJ	16d/JJ
!	!	!	!	!	!	!	!LO:LB:g=original	!	!LO:LB:g=original	!	!	!
=61	=61	=61	=61	=61	=61	=61	=61	=61	=61	=61	=61	=61
!	!	!	!	!	!LO:TX:t=P:problem=mixed beam	!	!	!	!	!	!	!
2GG/]	.	2d/]	2B/	.	8g/L	.	2G\	-ste	2b\	-ste	4d/	4d/
.	.	.	.	.	8gg\	.	.	.	.	.	.	.
.	.	.	.	.	8bb\	.	.	.	.	.	8r	8r
.	.	.	.	.	8ddd\J	.	.	.	.	.	16d/LL	16d/LL
.	.	.	.	.	.	.	.	.	.	.	16d/JJ	16d/JJ
=62	=62	=62	=62	=62	=62	=62	=62	=62	=62	=62	=62	=62
[2GG/	.	[2d/	2B/	.	4gg\	.	4.G\	e-	4.b\	e-	4d/	4d/
.	.	.	.	.	(16aa\LL	.	.	.	.	.	8.d/L	8.d/L
.	.	.	.	.	16gg\	.	.	.	.	.	.	.
.	.	.	.	.	16aa\	.	8G\	-lei-	8b\	-lei-	.	.
.	.	.	.	.	16bb\JJ)	.	.	.	.	.	16d/Jk	16d/Jk
=63	=63	=63	=63	=63	=63	=63	=63	=63	=63	=63	=63	=63
.	.	.	.	.	8qqaa/	.	.	.	.	.	.	.
8GG/L]	.	2d/]	2B/	.	8.ggT\L	.	2G\	-son	2b\	-son	4d/	4d/
8BB|/	.	.	.	.	.	.	.	.	.	.	.	.
.	.	.	.	.	(32ff#\LL	.	.	.	.	.	.	.
.	.	.	.	.	32gg\JJJ)	.	.	.	.	.	.	.
8D|/	.	.	.	.	4dd|\	.	.	.	.	.	4r	4r
8G|/J	.	.	.	.	.	.	.	.	.	.	.	.
=64	=64	=64	=64	=64	=64	=64	=64	=64	=64	=64	=64	=64
[2GG/	.	[2d/	2B/	.	(16g\LL	.	2G\	Chri-	2b\	Chri-	4d/	4d/
.	.	.	.	.	16a\	.	.	.	.	.	.	.
.	.	.	.	.	16b\	.	.	.	.	.	.	.
.	.	.	.	.	16cc#X\JJ)	.	.	.	.	.	.	.
.	.	.	.	.	(16dd\LL	.	.	.	.	.	8r	8r
.	.	.	.	.	16cc#\	.	.	.	.	.	.	.
.	.	.	.	.	16ee\	.	.	.	.	.	16d/LL	16d/LL
.	.	.	.	.	16dd\JJ)	.	.	.	.	.	16d/JJ	16d/JJ
=65	=65	=65	=65	=65	=65	=65	=65	=65	=65	=65	=65	=65
2GG/]	.	2d/]	2B/	.	(16dd\LL	.	2G\	-ste	2b\	-ste	4d/	4d/
.	.	.	.	.	16cc#\	.	.	.	.	.	.	.
.	.	.	.	.	16ee\	.	.	.	.	.	.	.
.	.	.	.	.	16dd\JJ)	.	.	.	.	.	.	.
.	.	.	.	.	(16ccn\LL	.	.	.	.	.	8r	8r
.	.	.	.	.	16b\	.	.	.	.	.	.	.
.	.	.	.	.	16a\	.	.	.	.	.	16d/LL	16d/LL
.	.	.	.	.	16g\JJ)	.	.	.	.	.	16d/JJ	16d/JJ
*	*	*v	*v	*	*	*	*	*	*	*	*	*
!	!	!	!	!	!	!	!	!	!	!LO:LB:g=original	!
=66	=66	=66	=66	=66	=66	=66	=66	=66	=66	=66	=66
4D\	.	8A/L	.	8f#/L	.	8F#\L	e-	(8g\L	e-	4d/	4d/
.	.	8B/J	.	8g/J	.	8G\J	.	8b\J)	.	.	.
.	.	.	.	.	.	8qB/	.	.	.	.	.
4DD/	7	(8f#/L	.	(16a/LL	.	8A\L	-lei-	(8ccn\L	-lei-	4d/	4d/
.	n	.	.	16ccn/	.	.	.	.	.	.	.
.	.	16g/L)	.	16b/	.	16G\L	.	16b\L	.	.	.
.	.	16a/JJ	.	16f#/JJ)	.	16F#\JJ	.	16a\JJ)	.	.	.
!LO:LB:g=original	!	!	!	!	!	!	!	!	!	!	!
=67	=67	=67	=67	=67	=67	=67	=67	=67	=67	=67	=67
*	*	*^	*	*	*	*	*	*	*	*	*
[2GG/	.	[2d/	(2B/	.	(4g/	.	2G\	-son	2b\	-son	4d/	4d/
.	.	.	.	.	8b/L)	.	.	.	.	.	4r	4r
.	.	.	.	.	8d/J	.	.	.	.	.	.	.
=68	=68	=68	=68	=68	=68	=68	=68	=68	=68	=68	=68	=68
2GG/]	.	2d/]	2B/)	.	(4g/	.	2G\	e-	2b\	e-	4d/	4d/
!	!	!	!	!	!LO:TX:t=P:problem=mixed beam	!	!	!	!	!	!	!
.	.	.	.	.	8dd\L)	.	.	.	.	.	4r	4r
.	.	.	.	.	8d/J	.	.	.	.	.	.	.
!	!	!	!	!	!	!	!	!	!	!	!	!LO:LB:g=original
=69	=69	=69	=69	=69	=69	=69	=69	=69	=69	=69	=69	=69
[2GG/	.	2d/	2B/	.	(4g/	.	2GT\	-lei-	2b\	-lei-	8d/L	8d/L
.	.	.	.	.	.	.	.	.	.	.	16d/L	16d/L
.	.	.	.	.	.	.	.	.	.	.	16d/JJ	16d/JJ
!	!	!	!	!	!LO:TX:t=P:problem=mixed beam	!	!	!	!	!	!	!
.	.	.	.	.	8gg\L)	.	.	.	.	.	16d/LL	16d/LL
.	.	.	.	.	.	.	.	.	.	.	16d/	16d/
.	.	.	.	.	8d/J	.	.	.	.	.	16d/	16d/
.	.	.	.	.	.	.	.	.	.	.	16d/JJ	16d/JJ
*	*	*v	*v	*	*	*	*	*	*	*	*	*
=70	=70	=70	=70	=70	=70	=70	=70	=70	=70	=70	=70
!LO:TX:t=P:problem=mixed beam	!	!	!	!	!	!	!	!	!	!	!
8GG/L]	.	4G/ 4d/ 4b/	.	4G/ 4d/ 4b/ 4gg/	.	4G\	-son	4b\	-son	4d/	4d/
!LO:TX:b:t=Solo	!	!	!	!	!	!	!	!	!	!	!
8D|\	.	.	.	.	.	.	.	.	.	.	.
8G|\	.	4r	.	[4bb\	.	4r	.	4r	.	4r	4r
8F#|\J	.	.	.	.	.	.	.	.	.	.	.
!	!	!	!	!	!	!	!	!LO:LB:g=original	!	!	!
=71	=71	=71	=71	=71	=71	=71	=71	=71	=71	=71	=71
!	!	!	!	!	!	!	!	!LO:TX:a:t=8	!	!LO:TX:a:t=5	!
4E\	.	4g/	.	8bb\L]	.	0r	.	0r	.	0r	0r
.	.	.	.	8aa|\	.	.	.	.	.	.	.
[4e\	.	[4gg\	.	8gg|\	.	.	.	.	.	.	.
.	.	.	.	8ff#|\J	.	.	.	.	.	.	.
!	!	!	!	!LO:LB:g=original	!	!	!	!	!	!	!
=72	=72	=72	=72	=72	=72	=72	=72	=72	=72	=72	=72
8e\L]	.	8gg\L]	.	8ee\L	.	.	.	.	.	.	.
8d\	.	8ff#\	.	16ff#\L	.	.	.	.	.	.	.
.	.	.	.	16gg\JJ	.	.	.	.	.	.	.
8c#X\	6	8ee\	.	[4aa\	.	.	.	.	.	.	.
8B\J	.	8dd\J	.	.	.	.	.	.	.	.	.
!	!	!LO:LB:g=original	!	!	!	!	!	!	!	!	!
=73	=73	=73	=73	=73	=73	=73	=73	=73	=73	=73	=73
8F#\L	.	8cc#\L	.	8aa\L]	.	.	.	.	.	.	.
16B\L	.	16dd\L	.	8gg|\	.	.	.	.	.	.	.
16c#\JJ	.	16ee\JJ	.	.	.	.	.	.	.	.	.
[4d\	.	[4ff#\	.	8ff#|\	.	.	.	.	.	.	.
.	.	.	.	8ee|\J	.	.	.	.	.	.	.
=74	=74	=74	=74	=74	=74	=74	=74	=74	=74	=74	=74
8d\L]	.	8ff#\L]	.	8dd\L	.	.	.	.	.	.	.
8cn\	.	8ee\	.	16ee\L	.	.	.	.	.	.	.
.	.	.	.	16ff#\JJ	.	.	.	.	.	.	.
8B\	6	8dd\	.	[4gg\	.	.	.	.	.	.	.
8A\J	.	8ccn\J	.	.	.	.	.	.	.	.	.
=75	=75	=75	=75	=75	=75	=75	=75	=75	=75	=75	=75
!LO:TX:b:t=unisono	!	!	!	!	!	!	!	!	!	!	!
8G|\L	.	8b/L	.	8gg\L]	.	0r	.	0r	.	2r	2r
8F#|\	.	8f#/	.	8ff#|\	.	.	.	.	.	.	.
8E|\	.	8e/	.	8ee|\	.	.	.	.	.	.	.
8D|\J	.	8d/J	.	8dd|\J	.	.	.	.	.	.	.
=76	=76	=76	=76	=76	=76	=76	=76	=76	=76	=76	=76
8C#\L	.	8c#X/L	.	8cc#X\L	.	.	.	.	.	4r	4r
8E\J	.	8e/J	.	8ee\J	.	.	.	.	.	.	.
4A\	.	(4a/	.	(4aa\	.	.	.	.	.	8r	8r
.	.	.	.	.	.	.	.	.	.	8aa\	8aa\
=77	=77	=77	=77	=77	=77	=77	=77	=77	=77	=77	=77
8G|\L	.	8g/L)	.	8gg\L)	.	.	.	.	.	8gg|\L	8gg\L
8F#|\	.	8f#|/	.	8ff#|\	.	.	.	.	.	8ff#|\	8ff#\
8E|\	.	8e|/	.	8ee|\	.	.	.	.	.	8ee|\	8ee\
8D|\J	.	8d|/J	.	8dd|\J	.	.	.	.	.	8dd|\J	8dd\J
=78	=78	=78	=78	=78	=78	=78	=78	=78	=78	=78	=78
!	!	!LO:TX:t=P:problem=mixed beam	!	!LO:TX:t=P:problem=mixed beam	!	!	!	!	!	!LO:TX:t=P:problem=mixed beam	!LO:TX:t=P:problem=mixed beam
.	.	.	.	8qqaa#X/	.	.	.	.	.	.	.
!LO:TX:t=P:problem=mixed beam	!	!	!	!	!	!	!	!	!	!	!
8A\L	.	8a\L	.	8aa#\L	.	.	.	.	.	8aa\L	8aa\L
8AA/J	.	8A/J	.	8a/J	.	.	.	.	.	8a/J	8a/J
4r	.	4r	.	4r	.	.	.	.	.	4r	4r
=79	=79	=79	=79	=79	=79	=79	=79	=79	=79	=79	=79
*	*	*^	*	*	*	*	*	*	*	*	*
!LO:TX:b:t=Tutti	!	!	!	!	!	!	!	!	!	!	!	!
[2D\	.	[2a/	[2f#\	.	4dd\	.	2d\	Chri-	4dd\	Chri-	4f#/	4dd\
.	.	.	.	.	(16ee\LL	.	.	.	(16ee\LL	.	16a/LL	16ee\LL
.	.	.	.	.	16dd\	.	.	.	16dd\	.	16f#/	16dd\
.	.	.	.	.	16ee\	.	.	.	16ee\	.	16a/	16ee\
.	.	.	.	.	16ff#\JJ)	.	.	.	16ff#\JJ)	.	16dd/JJ	16ff#\JJ
=80	=80	=80	=80	=80	=80	=80	=80	=80	=80	=80	=80	=80
2D\]	.	2a/]	2f#\]	.	8d/L	.	2D/	-ste	2dd\	-ste	8f#/L	8dd\L
!	!	!	!	!	!LO:TX:t=P:problem=mixed beam	!	!	!	!	!	!	!
.	.	.	.	.	8dd\	.	.	.	.	.	8d/	8ee\
.	.	.	.	.	8ff#\	.	.	.	.	.	8f#/	8ff#\
.	.	.	.	.	8aa\J	.	.	.	.	.	8a/J	8aa\J
!	!	!	!	!	!	!	!LO:LB:g=original	!	!	!	!LO:LB:g=original	!
=81	=81	=81	=81	=81	=81	=81	=81	=81	=81	=81	=81	=81
[2D\	.	[2a/	[2f#\	.	4dd|\	.	4.d\	e-	4dd\	e-	4f#/	4dd\
.	.	.	.	.	(16ee\LL	.	.	.	(16ee\LL	.	16a/LL	16ee\LL
.	.	.	.	.	16dd\	.	.	.	16dd\	.	16f#/	16dd\
.	.	.	.	.	16ee\)	.	8A\	-lei-	16ee\	.	16a/	16ee\
.	.	.	.	.	16ff#|\JJ	.	.	.	16ff#\JJ)	.	16dd/JJ	16ff#\JJ
=82	=82	=82	=82	=82	=82	=82	=82	=82	=82	=82	=82	=82
8D\L]	.	2a/]	2f#\]	.	8.ddT\L	.	2D/	-son	4dd\	-lei-	2f#/	4dd\
8F#|\	.	.	.	.	.	.	.	.	.	.	.	.
.	.	.	.	.	(32cc#\LL	.	.	.	.	.	.	.
.	.	.	.	.	32dd\JJJ)	.	.	.	.	.	.	.
8A|\	.	.	.	.	4a|/	.	.	.	4b\	-son	.	4a/
8d|\J	.	.	.	.	.	.	.	.	.	.	.	.
=83	=83	=83	=83	=83	=83	=83	=83	=83	=83	=83	=83	=83
[2D\	.	[2a/	[2f#\	.	(16dd\LL	.	2d\	Chri-	2ff#\	Chri-	4f#/	4a/
.	.	.	.	.	16ee\	.	.	.	.	.	.	.
.	.	.	.	.	16ff#\	.	.	.	.	.	.	.
.	.	.	.	.	16gg#X\JJ)	.	.	.	.	.	.	.
.	.	.	.	.	(16aa\LL	.	.	.	.	.	4r	4r
.	.	.	.	.	16gg#\	.	.	.	.	.	.	.
.	.	.	.	.	16bb\	.	.	.	.	.	.	.
.	.	.	.	.	16aa\JJ)	.	.	.	.	.	.	.
!	!	!	!	!	!LO:LB:g=original	!	!	!	!	!	!	!
=84	=84	=84	=84	=84	=84	=84	=84	=84	=84	=84	=84	=84
2D\]	.	2a/]	2f#\]	.	(16aa\LL	.	2D/	-ste	2ff#\	-ste	4f#/	4a/
.	.	.	.	.	16gg#X\)	.	.	.	.	.	.	.
.	.	.	.	.	16bb|\	.	.	.	.	.	.	.
.	.	.	.	.	16aa|\JJ	.	.	.	.	.	.	.
.	.	.	.	.	16ggn\LL	.	.	.	.	.	4r	4r
.	.	.	.	.	(16ff#\	.	.	.	.	.	.	.
.	.	.	.	.	16ee\)	.	.	.	.	.	.	.
.	.	.	.	.	16dd\JJ	.	.	.	.	.	.	.
*	*	*v	*v	*	*	*	*	*	*	*	*	*
!LO:LB:g=original	!	!	!	!	!	!	!	!	!	!	!LO:LB:g=original
=85	=85	=85	=85	=85	=85	=85	=85	=85	=85	=85	=85
4A\	.	8e/L	.	8cc#\L	.	4A\	e-	(8cc#\L	e-	8a/L	8gg\L
.	.	8f#/J	.	8dd\J	.	.	.	8dd\J)	.	8dd/J	8aa\J
!	!	!	!	!	!	!	!	!LO:LB:g=original	!	!	!
4AA/	7	16c#/LL	.	(16ee\LL	.	4AA/	-lei-	8ee\L	-lei-	8a/L	8ee\L
.	.	(16e/	.	16gg\	.	.	.	.	.	.	.
.	.	16d/	.	16ff#\)	.	.	.	(16ff#\L	.	16dd/L	16aa\L
.	.	16e/JJ)	.	16cc#|\JJ	.	.	.	16cc#\JJ)	.	16a/JJ	16gg\JJ
=86	=86	=86	=86	=86	=86	=86	=86	=86	=86	=86	=86
*	*	*^	*	*	*	*	*	*	*	*	*
[2D\	.	[2a/	[2f#\	.	(4dd\	.	2D/	-son	2dd\	-son	8f#/L	4ff#\
.	.	.	.	.	.	.	.	.	.	.	16d/L	.
.	.	.	.	.	.	.	.	.	.	.	16d/JJ	.
.	.	.	.	.	8ff#\L)	.	.	.	.	.	4d/	8r
.	.	.	.	.	8a\J	.	.	.	.	.	.	16d/LL
.	.	.	.	.	.	.	.	.	.	.	.	16d/JJ
=87	=87	=87	=87	=87	=87	=87	=87	=87	=87	=87	=87	=87
2D\]	.	2a/]	2f#\]	.	(4dd\	.	2d\	e-	2ff#\	e-	8r	4d/
.	.	.	.	.	.	.	.	.	.	.	16d/LL	.
.	.	.	.	.	.	.	.	.	.	.	16d/JJ	.
!	!	!	!	!	!LO:TX:t=P:problem=mixed beam	!	!	!	!	!	!	!
.	.	.	.	.	8aa\L)	.	.	.	.	.	4d/	8r
.	.	.	.	.	8a/J	.	.	.	.	.	.	16d/LL
.	.	.	.	.	.	.	.	.	.	.	.	16d/JJ
!	!	!LO:LB:g=original	!	!	!	!	!	!	!	!	!	!
=88	=88	=88	=88	=88	=88	=88	=88	=88	=88	=88	=88	=88
[2D\	.	[2a/	[2f#\	.	(4dd\	.	2d\	-lei-	2ff#\	-lei-	4d/	4d/
.	.	.	.	.	8ff#\L)	.	.	.	.	.	8.d/L	8.d/L
.	.	.	.	.	8cc#\J	.	.	.	.	.	.	.
.	.	.	.	.	.	.	.	.	.	.	16d/Jk	16d/Jk
=89	=89	=89	=89	=89	=89	=89	=89	=89	=89	=89	=89	=89
8D\L]	.	2a/]	2f#\]	.	8.ddT\L	.	2D/	-son	2ff#\	.	4d/	4d/
8F#|\	.	.	.	.	.	.	.	.	.	.	.	.
.	.	.	.	.	(32cc#\LL	.	.	.	.	.	.	.
.	.	.	.	.	32dd\JJJ)	.	.	.	.	.	.	.
8A|\	.	.	.	.	4a|/	.	.	.	.	.	4r	4r
8d|\J	.	.	.	.	.	.	.	.	.	.	.	.
=90	=90	=90	=90	=90	=90	=90	=90	=90	=90	=90	=90	=90
*	*	*	*	*	*	*	*	*ij	*	*	*	*
[2D\	.	[2a/	[2f#\	.	8dd|\L	.	2D/	e-	2f#/	-son	8r	4d/
.	.	.	.	.	(16ff#\L	.	.	.	.	.	16d/LL	.
.	.	.	.	.	16a\JJ)	.	.	.	.	.	16d/JJ	.
.	.	.	.	.	(8dd\L	.	.	.	.	.	4d/	8r
.	.	.	.	.	16ff#\L)	.	.	.	.	.	.	16d/LL
.	.	.	.	.	16a|\JJ	.	.	.	.	.	.	16d/JJ
=91	=91	=91	=91	=91	=91	=91	=91	=91	=91	=91	=91	=91
2D\_	.	2a/_	2f#\_	.	8dd|\L	.	2d\	-lei-	2ff#\	e-	8r	4d/
.	.	.	.	.	(16aa\L	.	.	.	.	.	16d/LL	.
.	.	.	.	.	16a\JJ)	.	.	.	.	.	16d/JJ	.
.	.	.	.	.	(8dd\L	.	.	.	.	.	4d/	8r
.	.	.	.	.	16aa\L)	.	.	.	.	.	.	16d/LL
.	.	.	.	.	16a|\JJ	.	.	.	.	.	.	16d/JJ
!	!	!	!	!	!	!	!	!	!	!	!LO:LB:g=original	!
=92	=92	=92	=92	=92	=92	=92	=92	=92	=92	=92	=92	=92
2D\]	.	2a/]	2f#\]	.	8dd|\L	.	2d\	-son	2ff#\	-lei-	4d/	4d/
*	*	*	*	*	*	*	*	*Xij	*	*	*	*
.	.	.	.	.	(16ff#\L	.	.	.	.	.	.	.
.	.	.	.	.	16cc#\JJ)	.	.	.	.	.	.	.
.	.	.	.	.	8dd|\L	.	.	.	.	.	8.d/L	8.d/L
.	.	.	.	.	(16ff#\L	.	.	.	.	.	.	.
.	.	.	.	.	16cc#\JJ)	.	.	.	.	.	16d/Jk	16d/Jk
=93	=93	=93	=93	=93	=93	=93	=93	=93	=93	=93	=93	=93
8DD/L	.	4a/	4f#\	.	4d/ 4a/ 4ff#/	.	4D\	e-	4f#/	-son	4d/	4d/
!LO:TX:t=P:problem=mixed beaam	!	!	!	!	!	!	!	!	!	!	!	!
8D\	.	.	.	.	.	.	.	.	.	.	.	.
.	.	.	.	.	8qqeee/	.	.	.	.	.	.	.
8F#\	6	16a\LL	4ryy	.	32ddd\LLL	.	4F#\	-lei-	4dd\	e-	4r	4r
.	.	.	.	.	(32ccc#\JJ	.	.	.	.	.	.	.
.	.	16aa\	.	.	8.ddd\J)	.	.	.	.	.	.	.
8D\J	.	16aa\	.	.	.	.	.	.	.	.	.	.
.	.	16aa\JJ	.	.	.	.	.	.	.	.	.	.
*	*	*v	*v	*	*	*	*	*	*	*	*	*
!	!	!	!	!LO:LB:g=original	!	!	!	!	!	!	!
=94	=94	=94	=94	=94	=94	=94	=94	=94	=94	=94	=94
!	!	!	!	!	!	!	!	!	!	!	!LO:TX:a:t=1
8G\L	5	16b\LL	.	32ddd\LLL	.	4G\	-son	[2dd\	-lei-	2r	2r
.	.	.	.	(32ccc#\JJ	.	.	.	.	.	.	.
.	.	16bb\	.	8.ddd\J)	.	.	.	.	.	.	.
8D\	.	16bb\	.	.	.	.	.	.	.	.	.
.	.	16bb\JJ	.	.	.	.	.	.	.	.	.
8A\	6 4	16f#\LL	.	(32ddd\LLL	.	4A\	e-	.	.	.	.
.	.	.	.	32ccc#\JJ	.	.	.	.	.	.	.
.	.	16ff#\	.	8.ddd\J)	.	.	.	.	.	.	.
8D\J	.	16ff#\	.	.	.	.	.	.	.	.	.
.	.	16ff#\JJ	.	.	.	.	.	.	.	.	.
!	!	!	!	!	!	!LO:LB:g=original	!	!	!	!	!
=95	=95	=95	=95	=95	=95	=95	=95	=95	=95	=95	=95
8B\L	6	16g\LL	.	32ddd\LLL	.	4B\	-lei-	2dd\]	.	4r	4r
.	.	.	.	(32ccc#\JJ	.	.	.	.	.	.	.
.	.	16gg\	.	8.ddd\J)	.	.	.	.	.	.	.
8D\	.	16gg\	.	.	.	.	.	.	.	.	.
.	.	16gg\JJ	.	.	.	.	.	.	.	.	.
.	.	.	.	8qqee/	.	.	.	.	.	.	.
8F#\	6	16A/LL	.	(32dd\LLL	.	4F#\	.	.	.	8r	8r
.	.	.	.	32cc#\JJ	.	.	.	.	.	.	.
.	.	16a/	.	8.dd\J)	.	.	.	.	.	.	.
8D\J	.	16a/	.	.	.	.	.	.	.	16d/LL	16d/LL
.	.	16a/JJ	.	.	.	.	.	.	.	16d/JJ	16d/JJ
!	!	!	!	!	!	!	!	!LO:LB:g=original	!	!	!
=96	=96	=96	=96	=96	=96	=96	=96	=96	=96	=96	=96
8G\L	5	16B/LL	.	(32dd\LLL	.	4G\	-son	2ddT\	.	8d/L	8d/L
.	.	.	.	32cc#\JJ	.	.	.	.	.	.	.
.	.	16b/	.	8.dd\J)	.	.	.	.	.	.	.
8D\	.	16b/	.	.	.	.	.	.	.	16d/L	16d/L
.	.	16b/JJ	.	.	.	.	.	.	.	16d/JJ	16d/JJ
!	!	!LO:TX:t=P:problem=mixed beam	!	!	!	!	!	!	!	!	!
8A\	6 4	16ff#\LL	.	(32dd\LLL	.	4A\	e-	.	.	16d/LL	16d/LL
.	.	.	.	32cc#\JJ	.	.	.	.	.	.	.
.	.	16f#/	.	8.dd\J)	.	.	.	.	.	16d/	16d/
8D\J	.	16f#/	.	.	.	.	.	.	.	16d/	16d/
.	.	16f#\JJ	.	.	.	.	.	.	.	16d/JJ	16d/JJyy
!	!	!	!	!	!	!	!	!	!	!	!LO:LB:g=original
=97	=97	=97	=97	=97	=97	=97	=97	=97	=97	=97	=97
!LO:TX:t=P:problem=mixed beaam	!	!	!	!	!	!	!	!	!	!	!
8B\L	6	16G/LL	.	(32dd\LLL	.	4B\	-lei-	4dd\	-son	4d/	4d/yy
.	.	.	.	32cc#\JJ	.	.	.	.	.	.	.
.	.	16g/	.	8.dd\J)	.	.	.	.	.	.	.
8D/	.	16g/	.	.	.	.	.	.	.	.	.
.	.	16g/JJ	.	.	.	.	.	.	.	.	.
!	!	!LO:TX:t=P:problem=mixed beam	!	!	!	!	!	!	!	!	!
.	.	.	.	8qqbb/	.	.	.	.	.	.	.
8C#X/	6	16e/LL	.	32aa\LLL	.	4C#X/	-son	4ee\	e-	4r	4r
.	.	.	.	(32gg#X\JJ	.	.	.	.	.	.	.
.	.	16ee\	.	8.aa\J)	.	.	.	.	.	.	.
8AA/J	.	16ee\	.	.	.	.	.	.	.	.	.
.	.	16ee\JJ	.	.	.	.	.	.	.	.	.
=98	=98	=98	=98	=98	=98	=98	=98	=98	=98	=98	=98
!	!	!	!	!	!	!	!	!	!	!	!LO:TX:a:t=1
.	.	.	.	8qqbb/	.	.	.	.	.	.	.
*	*	*	*	*	*	*	*ij	*	*	*	*
!	!	!LO:TX:t=P:problem=mixed beam	!	!	!	!	!	!	!	!	!
8D/L	5	16f#/LL	.	32aa\LLL	.	4D\	e-	(4ff#\	-lei-	2r	2r
.	.	.	.	(32gg#X\JJ	.	.	.	.	.	.	.
.	.	16ff#\	.	8.aa\J)	.	.	.	.	.	.	.
8AA/	.	16ff#\	.	.	.	.	.	.	.	.	.
.	.	16ff#\JJ	.	.	.	.	.	.	.	.	.
!	!	!LO:LB:g=original	!	!	!	!	!	!	!	!	!
!	!	!LO:TX:t=P:problem=mixed beam	!	!	!	!	!	!	!	!	!
8E/	6 4	16c#/LL	.	32aa\LLL	.	4E\	-lei-	4cc#\)	.	.	.
.	.	.	.	(32gg#X\JJ	.	.	.	.	.	.	.
.	.	16cc#\	.	8.aa\J)	.	.	.	.	.	.	.
8AA/J	.	16cc#\	.	.	.	.	.	.	.	.	.
.	.	16cc#\JJ	.	.	.	.	.	.	.	.	.
=99	=99	=99	=99	=99	=99	=99	=99	=99	=99	=99	=99
!LO:TX:t=P:problem=mixed beam	!	!LO:TX:t=P:problem=mixed beam	!	!	!	!	!	!	!	!	!
8F#\L	6	16d/LL	.	32aa\LLL	.	4F#\	-son	4dd\	.	4r	4r
.	.	.	.	(32gg#X\JJ	.	.	.	.	.	.	.
.	.	16dd/	.	8.aa\J)	.	.	.	.	.	.	.
8AA/	.	16dd/	.	.	.	.	.	.	.	.	.
.	.	16dd/JJ	.	.	.	.	.	.	.	.	.
!	!	!LO:TX:t=P:problem=mixed beam	!	!	!	!	!	!	!	!	!
.	.	.	.	8qqb/	.	.	.	.	.	.	.
8E/	6	16e/LL	.	32a/LLL	.	4C#\	e-	4ee\	.	8r	8r
.	.	.	.	(32g#X/JJ	.	.	.	.	.	.	.
.	.	16ee\	.	8.a/J)	.	.	.	.	.	.	.
8AA/J	.	16ee\	.	.	.	.	.	.	.	16a/LL	16a/LL
.	.	16ee\JJ	.	.	.	.	.	.	.	16a/JJ	16a/JJ
=100	=100	=100	=100	=100	=100	=100	=100	=100	=100	=100	=100
.	.	.	.	8qqb/	.	.	.	.	.	.	.
!	!	!LO:TX:t=P:problem=mixed beam	!	!	!	!	!	!	!	!	!
8D/L	5	16f#/LL	.	32a/LLL	.	4D\	-lei-	(4ff#\	.	8a/L	8a/L
.	.	.	.	(32g#X/JJ	.	.	.	.	.	.	.
.	.	16ff#\	.	8.a/J)	.	.	.	.	.	.	.
8AA/	.	16ff#\	.	.	.	.	.	.	.	16a/L	16a/L
.	.	16ff#\JJ	.	.	.	.	.	.	.	16a/JJ	16a/JJ
!	!	!LO:TX:t=P:problem=mixed beam	!	!	!	!	!	!	!	!	!
8E/	6 4	16c#/LL	.	32a/LLL	.	4E\	.	4cc#\)	.	16a/LL	16a/LL
.	.	.	.	(32g#X/JJ	.	.	.	.	.	.	.
.	.	16cc#\	.	8.a/J)	.	.	.	.	.	16a/	16a/
8AA/J	.	16cc#\	.	.	.	.	.	.	.	16a/	16a/
.	.	16cc#\JJ	.	.	.	.	.	.	.	16a/JJ	16a/JJ
!	!	!	!	!LO:LB:g=original	!	!	!	!	!	!	!
=101	=101	=101	=101	=101	=101	=101	=101	=101	=101	=101	=101
!LO:TX:t=P:problem=mixed beam	!	!LO:TX:t=P:problem=mixed beam	!	!	!	!	!	!	!	!	!
8F#\L	6	16d/LL	.	32a/LLL	.	4F#\	-son	4dd\	-son	4a/	4a/
*	*	*	*	*	*	*	*Xij	*	*	*	*
.	.	.	.	(32g#X/JJ	.	.	.	.	.	.	.
.	.	16dd\	.	8.a/J)	.	.	.	.	.	.	.
!LO:TX:b:t=unisono	!	!	!	!	!	!	!	!	!	!	!
8AA/	.	16dd\	.	.	.	.	.	.	.	.	.
.	.	16dd\JJ	.	.	.	.	.	.	.	.	.
8D/	.	8d|/L	.	8d|/L	.	4r	.	4r	.	8d/L	8d|/L
8F#/J	.	8f#|/J	.	8f#|/J	.	.	.	.	.	8f#/J	8f#|/J
!	!	!	!	!	!	!	!	!	!	!LO:LB:g=original	!
=102	=102	=102	=102	=102	=102	=102	=102	=102	=102	=102	=102
!	!	!	!	!	!	!LO:TX:a:t=4	!	!LO:TX:a:t=4	!	!	!
8A|\L	.	8a|\L	.	8a\L	.	2r	.	0r	.	8a|/L	8a|/L
8d|\	.	8dd|\	.	8dd|\	.	.	.	.	.	8dd|/J	8dd|/J
8A\	.	8a|\	.	8a|\	.	.	.	.	.	4a/	4a/
8G\J	.	8g|\J	.	8gn|\J	.	.	.	.	.	.	.
!LO:LB:g=original	!	!	!	!	!	!	!	!	!	!	!
=103	=103	=103	=103	=103	=103	=103	=103	=103	=103	=103	=103
.	.	.	.	8qqg/	.	.	.	.	.	.	.
8F#\L	.	8.f#t/L	.	8.f#t/L	.	2r	.	.	.	8f#/L	8f#/L
8D\	.	.	.	.	.	.	.	.	.	8d/J	8d/J
.	.	(32e/LL	.	(32e/LL	.	.	.	.	.	.	.
.	.	32d/JJJ)	.	32d/JJJ)	.	.	.	.	.	.	.
!	!	!	!	!LO:TX:t=P:problem=mixed beam	!	!	!	!	!	!	!
8A\	.	8a/L	.	8a\L	.	.	.	.	.	4a/	4a/
!LO:TX:t=P:problem=mixed beam	!	!	!	!	!	!	!	!	!	!	!
8AA/J	.	8A/J	.	8A/J	.	.	.	.	.	.	.
=104	=104	=104	=104	=104	=104	=104	=104	=104	=104	=104	=104
8F#\L	.	8.f#t/L	.	8.f#t/L	.	2r	.	.	.	8f#/L	8f#/L
8D\	.	.	.	.	.	.	.	.	.	8d/J	8d/J
.	.	(32e/LL	.	(32e/LL	.	.	.	.	.	.	.
.	.	32d/JJJ)	.	32d/JJJ)	.	.	.	.	.	.	.
!	!	!	!	!LO:TX:t=P:problem=mixed beam	!	!	!	!	!	!	!
8A\	.	8a/L	.	8a|\L	.	.	.	.	.	4a/	4a/
!LO:TX:t=P:problem=mixed beam	!	!	!	!	!	!	!	!	!	!	!
8AA/J	.	8A/J	.	8A|/J	.	.	.	.	.	.	.
=105	=105	=105	=105	=105	=105	=105	=105	=105	=105	=105	=105
.	.	8qqg/	.	8qqg/	.	.	.	.	.	.	.
8F#\L	.	8.f#t/L	.	8.f#t/L	.	2r	.	.	.	8f#/L	8f#/L
8D\	.	.	.	.	.	.	.	.	.	8d/J	8d/J
.	.	(32e/LL	.	(32e/LL	.	.	.	.	.	.	.
.	.	32d/JJJ)	.	32d/JJJ)	.	.	.	.	.	.	.
!	!	!	!	!LO:TX:t=P:problem=mixed beam	!	!	!	!	!	!	!
8A\	.	8a/L	.	8a\L	.	.	.	.	.	8a/L	8a/L
!LO:TX:t=P:problem=mixed beam	!	!	!	!	!	!	!	!	!	!	!
8AA/J	.	8A/J	.	8A/J	.	.	.	.	.	16a/L	16a/L
.	.	.	.	.	.	.	.	.	.	16a/JJ	16a/JJ
=106	=106	=106	=106	=106	=106	=106	=106	=106	=106	=106	=106
8D\L	.	4d/ 4a/ 4ff#/	.	4d|/ 4a/ 4ff#/	.	2d\	Chri-	2ff#\	Chri-	4d/	4f#/
8d\J	.	.	.	.	.	.	.	.	.	.	.
4D\	.	8r	.	8r	.	.	.	.	.	4r	4r
.	.	(32ff#\LLL	.	(32aa\LLL	.	.	.	.	.	.	.
.	.	32ee\	.	32gg\	.	.	.	.	.	.	.
.	.	32dd\)	.	32ff#\)	.	.	.	.	.	.	.
.	.	32cc#\JJJ	.	32ee\JJJ	.	.	.	.	.	.	.
!	!	!LO:LB:g=original	!	!	!	!	!	!	!	!	!
=107	=107	=107	=107	=107	=107	=107	=107	=107	=107	=107	=107
8r	.	4d/ 4a/ 4ff#/	.	4d|/ 4a/ 4ff#/	.	2D/	-ste	2f#/	-ste	4d/	4f#/
8d\	.	.	.	.	.	.	.	.	.	.	.
4D\	.	8r	.	8r	.	.	.	.	.	4r	4r
.	.	(32ff#\LLL	.	(32aa\LLL	.	.	.	.	.	.	.
.	.	32ee\	.	32gg\	.	.	.	.	.	.	.
.	.	32dd\)	.	32ff#\)	.	.	.	.	.	.	.
.	.	32cc#\JJJ	.	32ee\JJJ	.	.	.	.	.	.	.
!	!	!	!	!	!	!	!	!LO:LB:g=original	!	!	!
=108	=108	=108	=108	=108	=108	=108	=108	=108	=108	=108	=108
8r	.	8d|/ 8a/ 8ff#/	.	8d|/ 8a/ 8ff#/	.	8r	.	8r	.	8r	8r
8d\L	.	(32ff#\LLL	.	(32aa\LLL	.	8d\	e-	8ff#\	e-	16d/LL	16f#/LL
.	.	32ee\	.	32gg\	.	.	.	.	.	.	.
.	.	32dd\)	.	32ff#\)	.	.	.	.	.	16d/JJ	16f#/JJ
.	.	32cc#\JJJ	.	32ee\JJJ	.	.	.	.	.	.	.
!	!	!	!	!	!	!	!	!	!	!	!LO:LB:g=original
8D\	.	8d|/ 8a/ 8ff#/	.	8d|/ 8a/ 8ff#/	.	4d\	-lei-	4ff#\	-lei-	8d/L	8f#/Lyy
8d\J	.	(32ff#\LLL	.	(32aa\LLL	.	.	.	.	.	16f#/L	16a/L
.	.	32ee\	.	32gg\	.	.	.	.	.	.	.
.	.	32dd\	.	32ff#\	.	.	.	.	.	16f#/JJ	16a/JJ
.	.	32cc#\JJJ)	.	32ee\JJJ)	.	.	.	.	.	.	.
=109	=109	=109	=109	=109	=109	=109	=109	=109	=109	=109	=109
4D\	.	4d/ 4a/ 4ff#/	.	4d/ 4a/ 4ff#/	.	4d\	-son	4ff#\	-son	4d/	4f#/
4r	.	4r	.	4r	.	4r	.	4r	.	4r	4r
==	==	==	==	==	==	==	==	==	==	==	==
*-	*-	*-	*-	*-	*-	*-	*-	*-	*-	*-	*-
!!!system-decoration: [(s1,s2)][(s3,s4)][(s5,s6)][(s7)]
!!!RDF**kern: | = vertical stroke
!!!RDF**kern: > = above
!!!RDF**kern: < = below
!!!ENC: Marta Opryszak
!!!END: 2022-03-30
!!!ENC: Leszek Kubiak
!!!END: 2022-04-07
